packages/icons/raw/imported/MailFilter.svg

<svg width="32" height="32" viewBox="0 0 32 32" fill="none" xmlns="http://www.w3.org/2000/svg">
<path d="M18.0769 17.5L17.7133 17.1568L17.5769 17.3013L17.5769 17.5L18.0769 17.5ZM13.9231 17.5L14.4231 17.5L14.4231 17.3013L14.2867 17.1568L13.9231 17.5ZM15.2093 24.1193L15.4262 23.6688L15.2093 24.1193ZM7.52065 10.7182L7.15707 11.0614L7.52065 10.7182ZM24.4794 10.7182L24.1158 10.3749L24.4794 10.7182ZM23.0918 7.00001L8.90822 7L8.90822 8L23.0918 8.00001L23.0918 7.00001ZM24.1158 10.3749L17.7133 17.1568L18.4405 17.8432L24.8429 11.0614L24.1158 10.3749ZM14.2867 17.1568L7.88423 10.3749L7.15707 11.0614L13.5595 17.8432L14.2867 17.1568ZM17.5769 17.5L17.5769 22.3173L18.5769 22.3173L18.5769 17.5L17.5769 17.5ZM14.4231 22.2432L14.4231 17.5L13.4231 17.5L13.4231 22.2432L14.4231 22.2432ZM15.4262 23.6688L15.2724 23.5947L14.8385 24.4957L14.9924 24.5698L15.4262 23.6688ZM13.4231 22.2432C13.4231 23.2036 13.9732 24.0791 14.8385 24.4957L15.2724 23.5947C14.7532 23.3447 14.4231 22.8194 14.4231 22.2432L13.4231 22.2432ZM25.5 9.40823C25.5 8.07821 24.4218 7.00001 23.0918 7.00001L23.0918 8.00001C23.8695 8.00001 24.5 8.63049 24.5 9.40823L25.5 9.40823ZM7.5 9.40822C7.5 8.63048 8.13048 8 8.90822 8L8.90822 7C7.5782 7 6.5 8.0782 6.5 9.40822L7.5 9.40822ZM17.5769 22.3173C17.5769 23.4226 16.4221 24.1483 15.4262 23.6688L14.9924 24.5698C16.6522 25.369 18.5769 24.1595 18.5769 22.3173L17.5769 22.3173ZM6.5 9.40822C6.5 10.023 6.73508 10.6144 7.15707 11.0614L7.88423 10.3749C7.63746 10.1135 7.5 9.76769 7.5 9.40822L6.5 9.40822ZM24.5 9.40823C24.5 9.76769 24.3625 10.1135 24.1158 10.3749L24.8429 11.0614C25.2649 10.6144 25.5 10.023 25.5 9.40823L24.5 9.40823Z" fill="black"/>
</svg>

<svg width="32" height="32" fill="none" xmlns="http://www.w3.org/2000/svg"><path d="m18.077 17.5-.364-.343-.136.144v.199h.5Zm-4.154 0h.5v-.199l-.136-.144-.364.343Zm1.286 6.62.217-.451-.217.45ZM7.521 10.717l-.364.343.364-.343Zm16.958 0-.363-.343.363.343ZM23.092 7H8.908v1h14.184V7Zm1.024 3.375-6.403 6.782.727.686 6.403-6.782-.727-.686Zm-9.83 6.782-6.402-6.782-.727.686 6.402 6.782.728-.686Zm3.29.343v4.817h1V17.5h-1Zm-3.153 4.743V17.5h-1v4.743h1Zm1.003 1.426-.154-.074-.434.9.154.075.434-.901Zm-2.003-1.426a2.5 2.5 0 0 0 1.415 2.253l.434-.901a1.5 1.5 0 0 1-.849-1.352h-1ZM25.5 9.408A2.408 2.408 0 0 0 23.092 7v1c.777 0 1.408.63 1.408 1.408h1Zm-18 0C7.5 8.63 8.13 8 8.908 8V7A2.408 2.408 0 0 0 6.5 9.408h1Zm10.077 12.91a1.5 1.5 0 0 1-2.15 1.35l-.435.902c1.66.799 3.585-.41 3.585-2.253h-1ZM6.5 9.407c0 .615.235 1.206.657 1.653l.727-.686a1.408 1.408 0 0 1-.384-.967h-1Zm18 0c0 .36-.137.706-.384.967l.727.686a2.408 2.408 0 0 0 .657-1.653h-1Z" fill="#000"/></svg>
